X: 21
T:Eighth of January
R:Reel
C:Traditional
M:2/4
L:1/8
S:https://tunearch.org//wiki/Eighth_of_January_(1)
K:D
e/a/|"D"f/e/f/a/ f/e/d/f/|"G"e/f/e/d/ BB/d/|"A7"ee/f/ e/d/B/A/|"D"d/B/A/[F/A/] [DA]e/a/|
"D"f/e/f/a/ f/e/d/f/|"G"e/f/e/d/ B/d/e/f/|"A7"a/f/e/a/ f/e/c/A/|"D"d/B/A/F/ D:|
|:"D"A/A/|AA/B/ AA/A/|A/d/B/A/ F/E/D/F/|AA/B/ AA/d/|"A7"B/A/F/E/ "D"D[D/A/][F/A/]|
"D"AA/B/ AA/A/|A/d/B/A/ F/E/D/F/|AA/A/ A/d/f/e/|"A7"d/B/A/F/ "D"D:|
|:e/a/|"D"fa f[df]|"G"e/f/e/[d/e/] [Be][B/e/][d/e/]|"A7"[ee]e/f/ e/d/B/A/|"D"d/B/A/[F/A/] [DA]e/a/|
"D"fa f[df]|"G"e/f/e/d/ B/d/e/f/|"A7"aA Bc|"D"d/B/A/F/ D:|
|:f/g/|"D"a/f/b/f/ a/f/d/f/|a/f/b/f/ af/g/|a/f/b/f/ a/f/g/a/|"A7"f/d/e/c/ "D"df/g/|
"D"a/f/b/f/ a/f/b/f/|a/f/b/f/ af/g/|a/f/b/f/ a/f/g/a/|"A7"f/d/e/c/ "D"d:|]

